X:1
T:A minor Daniel Read, 1787 (Revised 1804)
T:Isaac Watts, 1719 (Psalm 69) 88. 88. (L. M.)
T:Providence No Copyright. Transcribed from the Columbian Harmonist, 1807.
%%score [ 1 2 3 4 ]
L:1/8
M:none
K:C
V:1 treble nm="Treble" snm="Tr."
V:2 treble nm="Counter" snm="C."
V:3 treble-8 nm="Tenor" snm="T."
V:4 bass nm="Bass" snm="B."
V:1
 A4 c2 c2 | (c3 d e2) d2 | e4 (d2 c2) | B8- | B4 A4 | ^G2 G2 A2 B2 | c4 B4 | A8 | z8 | z8 | z8 | %11
w: |||||||||||
 z4 z2 e2 | e6 c2 | B6 B2 | (A3 B c2) d2 | e6 ^G2 | (A3 B A2) c2 | B6 A2 | (G3 A BA) GF | E6 F2 | %20
w: 1.~Be-|hold! The|ris- ing|bil- * * lows|roll, To|ov- * * er-|whelm His|ho- * * * ly *|soul, To|
 G2 A2 B2 c2 | (d3 c) B4 | A8 |] %23
w: ov- er- whelm His|ho- * ly|soul.|
V:2
 E4 E2 E2 | E6 G2 | G4 F4 | E8 | z4 C4 | D2 D2 C2 E2 | E4 E4 | E8 | z8 | z8 | z4 z2 E2 | %11
w: 1.~Deep in our|hearts let|us re-|cord|The|deep- er sor- rows|of our|Lord:|||Be-|
 (E3 F G2) G2 | (G>AGA B2) c2 | E6 E2 | E8- | E8- | E6 E2 | D2 D2 D2 C2 | G2 G2 G2 E2 | %19
w: hold! * * the|ris- * * * * ing|bil- lows|roll,~||.\_\_ To|ov- er- whelm His|ho- ly soul, To|
 (A4 B2) A2 | G6 E2 | F4 E4 | E8 |] %23
w: ov- * er-|whelm His|ho- ly|soul.|
V:3
 E4 A2 (A^G) | A6 B2 | (c3 B) A4 | ^G8 | z4 E4 | D2 D2 E>F GF | E4 G4 | A8 | z8 | z4 z2 E2 | %10
w: |||||||||1.~Be-|
 A6 B2 | (c3 d e2) dc | (B3 c dc) BA | ^G8 | z4 z2 G2 | (A3 B A2) B2 | (c4 B2) A2 | (G2 A2 B2) c2 | %18
w: hold! The|ris- * * ing *|bil- * * * lows *|roll,|To|ov- * * er-|whelm * His|ho- * * ly|
 d6 B2 | (c3 d c2) d2 | (e4 d2) c2 | (B3 c A2) ^G2 | A8 |] %23
w: soul, To|ov- * * er-|whelm * His|ho- * * ly|soul.|
V:4
 A,,4 A,,2 A,,2 | (A,,3 B,, C,2) D,2 | C,4 D,4 | E,8- | E,4 C,4 | B,,2 B,,2 A,,2 G,,2 | A,,4 E,4 | %7
w: |||||||
 A,,8 | z4 A,,4 | C,6 C,2 | (D,3 E, F,2) G,F, | E,6 E,2 | E,8- | E,6 E,2 | A,6 G,2 | %15
w: |1.~Be-|hold! The|ris- * * ing *|bil- lows|roll,~|* To|ov- er-|
 (C3 B, A,2) E,>D, | (C,2 D,2 E,2) ^F,2 | G,8- | G,6 G,2 | (A,4 G,2) F,2 | (E,3 F, G,2) A,2 | %21
w: whelm * * His *|ho- * * ly|soul,~|* To|ov- * er-|whelm * * His|
 D,4 E,4 | A,,8 |] %23
w: ho- ly|soul.|

